web/public/images/brand/logo--white-text-only.svg

<svg fill="none" height="553" viewBox="0 0 2821 553" width="2821" xmlns="http://www.w3.org/2000/svg"><g fill="#fff"><path d="m85.4292 205.654h27.5578c27.007 0 46.94-4.521 59.8-13.563s19.291-23.25 19.291-42.625c0-19.191-6.614-32.846-19.842-40.965-13.044-8.119-33.345-12.1786-60.903-12.1786h-25.9038zm0 69.75v155.279h-85.4292v-404.6649h117.396c54.748 0 95.258 10.0567 121.53 30.1701 26.272 19.9286 39.408 50.2828 39.408 91.0628 0 23.804-6.522 45.025-19.566 63.662-13.045 18.452-31.508 32.938-55.392 43.456 60.628 90.971 100.127 149.741 118.5 176.314h-94.8l-96.177-155.279z"/><path d="m445.365 175.484c-17.82 0-31.784 5.72-41.889 17.161-10.105 11.256-15.89 27.31-17.36 48.161h117.946c-.367-20.851-5.786-36.905-16.258-48.161-10.471-11.441-24.618-17.161-42.439-17.161zm11.849 260.734c-49.602 0-88.368-13.746-116.293-41.241-27.925-27.494-41.887-66.43-41.887-116.805 0-51.851 12.859-91.893 38.58-120.126 25.906-28.417 61.636-42.625 107.198-42.625 43.543 0 77.44 12.455 101.689 37.366 24.252 24.911 36.377 59.325 36.377 103.242v40.966h-198.692c.92 23.988 7.992 42.716 21.22 56.186 13.228 13.472 31.784 20.207 55.667 20.207 18.556 0 36.1-1.938 52.634-5.812 16.537-3.877 33.807-10.059 51.81-18.546v65.322c-14.697 7.381-30.404 12.824-47.124 16.331-16.718 3.69-37.111 5.535-61.179 5.535z"/><path d="m726.202 436.218c-36.194 0-64.669-14.115-85.432-42.349-20.576-28.232-30.864-67.351-30.864-117.357 0-50.745 10.474-90.233 31.417-118.466 21.127-28.417 50.155-42.625 87.082-42.625 38.766 0 68.344 15.131 88.737 45.393h2.756c-4.226-23.066-6.339-43.64-6.339-61.7237v-99.0903h84.326v430.683h-64.485l-16.258-40.135h-3.583c-19.106 30.449-48.227 45.67-87.357 45.67zm29.485-67.26c21.496 0 37.203-6.272 47.124-18.822 10.105-12.546 15.618-33.859 16.534-63.936v-9.135c0-33.214-5.142-57.018-15.431-71.411-10.104-14.393-26.638-21.59-49.604-21.59-18.74 0-33.344 8.027-43.816 24.081-10.288 15.869-15.433 39.027-15.433 69.474s5.235 53.329 15.707 68.644c10.471 15.131 25.445 22.695 44.919 22.695z"/><path d="m1216.47 430.683-23.69-108.225-31.97-136.733h-1.93l-56.22 244.958h-90.39l-87.631-309.45h83.771l35.55 137.011c5.7 24.542 11.49 58.402 17.37 101.581h1.65c.73-14.025 3.95-36.258 9.64-66.707l4.41-23.526 38.03-148.359h92.6l36.1 148.359c.73 4.059 1.84 10.057 3.31 17.991 1.65 7.933 3.21 16.423 4.68 25.466 1.47 8.856 2.75 17.62 3.86 26.293 1.28 8.489 2.02 15.317 2.2 20.483h1.66c1.65-13.286 4.59-31.461 8.81-54.527 4.23-23.25 7.26-38.935 9.1-47.054l36.93-137.011h82.39l-88.73 309.45z"/><path d="m1490.97 275.404c0 30.631 4.96 53.789 14.89 69.473 10.1 15.687 26.45 23.528 49.05 23.528 22.41 0 38.49-7.75 48.22-23.251 9.92-15.684 14.89-38.933 14.89-69.75 0-30.631-4.97-53.604-14.89-68.92s-26.18-22.973-48.77-22.973c-22.42 0-38.59 7.657-48.5 22.973-9.93 15.131-14.89 38.105-14.89 68.92zm213.02 0c0 50.375-13.22 89.774-39.68 118.188-26.45 28.418-63.29 42.626-110.51 42.626-29.57 0-55.66-6.458-78.26-19.374-22.6-13.103-39.96-31.832-52.08-56.189-12.13-24.358-18.19-52.775-18.19-85.251 0-50.56 13.13-89.863 39.41-117.911 26.27-28.048 63.2-42.072 110.78-42.072 29.58 0 55.66 6.458 78.26 19.375s39.96 31.461 52.09 55.634c12.12 24.173 18.18 52.498 18.18 84.974z"/><path d="m1817.83 275.404c0 30.631 4.96 53.789 14.88 69.473 10.11 15.687 26.46 23.528 49.06 23.528 22.41 0 38.48-7.75 48.22-23.251 9.92-15.684 14.88-38.933 14.88-69.75 0-30.631-4.96-53.604-14.88-68.92s-26.18-22.973-48.78-22.973c-22.41 0-38.58 7.657-48.5 22.973-9.92 15.131-14.88 38.105-14.88 68.92zm213.02 0c0 50.375-13.23 89.774-39.68 118.188-26.46 28.418-63.29 42.626-110.51 42.626-29.58 0-55.66-6.458-78.26-19.374-22.6-13.103-39.96-31.832-52.09-56.189-12.12-24.358-18.19-52.775-18.19-85.251 0-50.56 13.14-89.863 39.41-117.911 26.28-28.048 63.2-42.072 110.79-42.072 29.57 0 55.66 6.458 78.26 19.375s39.96 31.461 52.09 55.634c12.12 24.173 18.18 52.498 18.18 84.974z"/><path d="m2175.28 436.218c-36.19 0-64.67-14.115-85.43-42.349-20.58-28.232-30.87-67.351-30.87-117.357 0-50.745 10.47-90.233 31.42-118.466 21.13-28.417 50.16-42.625 87.08-42.625 38.77 0 68.35 15.131 88.74 45.393h2.75c-4.22-23.066-6.33-43.64-6.33-61.7237v-99.0903h84.32v430.683h-64.48l-16.26-40.135h-3.58c-19.11 30.449-48.23 45.67-87.36 45.67zm29.48-67.26c21.5 0 37.21-6.272 47.13-18.822 10.1-12.546 15.61-33.859 16.53-63.936v-9.135c0-33.214-5.14-57.018-15.43-71.411-10.1-14.393-26.64-21.59-49.6-21.59-18.74 0-33.35 8.027-43.82 24.081-10.29 15.869-15.43 39.027-15.43 69.474s5.23 53.329 15.71 68.644c10.47 15.131 25.44 22.695 44.91 22.695z"/><path d="m2376.75 549.702c-19.29 0-36.1-2.029-50.43-6.089v-71.413c14.69 3.69 28.1 5.536 40.23 5.536 18.74 0 32.15-5.903 40.23-17.713 8.09-11.625 12.13-29.893 12.13-54.804v-379.2009h85.43v378.6449c0 47.24-10.75 83.224-32.24 107.948-21.5 24.727-53.28 37.091-95.35 37.091z"/><path d="m2821 318.308c0 36.535-13.13 65.322-39.41 86.355-26.09 21.037-62.46 31.555-109.13 31.555-42.99 0-81.02-8.12-114.09-24.357v-79.714c27.19 12.177 50.16 20.757 68.9 25.74 18.92 4.983 36.19 7.474 51.81 7.474 18.74 0 33.07-3.597 42.99-10.795 10.1-7.197 15.15-17.899 15.15-32.108 0-7.934-2.2-14.945-6.61-21.036-4.41-6.272-10.93-12.271-19.57-17.99-8.45-5.721-25.81-14.855-52.08-27.403-24.62-11.625-43.08-22.789-55.39-33.491-12.31-10.703-22.14-23.158-29.49-37.366-7.35-14.209-11.02-30.816-11.02-49.822 0-35.7984 12.03-63.9385 36.1-84.4209 24.25-20.4825 57.69-30.7235 100.31-30.7235 20.94 0 40.88 2.4911 59.8 7.4733 19.11 4.9823 39.04 11.9941 59.8 21.0359l-27.56 66.7062c-21.49-8.857-39.31-15.039-53.46-18.545-13.96-3.5059-27.74-5.2591-41.33-5.2591-16.17 0-28.57 3.7829-37.21 11.3481-8.63 7.566-12.95 17.438-12.95 29.617 0 7.565 1.74 14.208 5.24 19.928 3.49 5.536 9 10.98 16.53 16.331 7.72 5.167 25.81 14.578 54.29 28.232 37.66 18.084 63.47 36.26 77.44 54.528 13.96 18.083 20.94 40.318 20.94 66.707z"/></g></svg>

<svg width="2821" height="553" viewBox="0 0 2821 553" fill="none" xmlns="http://www.w3.org/2000/svg">
<path d="M85.4292 205.654H112.987C139.994 205.654 159.927 201.133 172.787 192.091C185.647 183.049 192.078 168.841 192.078 149.466C192.078 130.275 185.464 116.62 172.236 108.501C159.192 100.382 138.891 96.3224 111.333 96.3224H85.4292V205.654ZM85.4292 275.404V430.683H0V26.0181H117.396C172.144 26.0181 212.654 36.0748 238.926 56.1882C265.198 76.1168 278.334 106.471 278.334 147.251C278.334 171.055 271.812 192.276 258.768 210.913C245.723 229.365 227.26 243.851 203.376 254.369C264.004 345.34 303.503 404.11 321.876 430.683H227.076L130.899 275.404H85.4292Z" fill="white"/>
<path d="M445.365 175.484C427.545 175.484 413.581 181.204 403.476 192.645C393.371 203.901 387.586 219.955 386.116 240.806H504.062C503.695 219.955 498.276 203.901 487.804 192.645C477.333 181.204 463.186 175.484 445.365 175.484ZM457.214 436.218C407.612 436.218 368.846 422.472 340.921 394.977C312.996 367.483 299.034 328.547 299.034 278.172C299.034 226.321 311.893 186.279 337.614 158.046C363.52 129.629 399.25 115.421 444.812 115.421C488.355 115.421 522.252 127.876 546.501 152.787C570.753 177.698 582.878 212.112 582.878 256.029V296.995H384.186C385.106 320.983 392.178 339.711 405.406 353.181C418.634 366.653 437.19 373.388 461.073 373.388C479.629 373.388 497.173 371.45 513.707 367.576C530.244 363.699 547.514 357.517 565.517 349.03V414.352C550.82 421.733 535.113 427.176 518.393 430.683C501.675 434.373 481.282 436.218 457.214 436.218Z" fill="white"/>
<path d="M726.202 436.218C690.008 436.218 661.533 422.103 640.77 393.869C620.194 365.637 609.906 326.518 609.906 276.512C609.906 225.767 620.38 186.279 641.323 158.046C662.45 129.629 691.478 115.421 728.405 115.421C767.171 115.421 796.749 130.552 817.142 160.814H819.898C815.672 137.748 813.559 117.174 813.559 99.0903V0H897.885V430.683H833.4L817.142 390.548H813.559C794.453 420.997 765.332 436.218 726.202 436.218ZM755.687 368.958C777.183 368.958 792.89 362.686 802.811 350.136C812.916 337.59 818.429 316.277 819.345 286.2V277.065C819.345 243.851 814.203 220.047 803.914 205.654C793.81 191.261 777.276 184.064 754.31 184.064C735.57 184.064 720.966 192.091 710.494 208.145C700.206 224.014 695.061 247.172 695.061 277.619C695.061 308.066 700.296 330.948 710.768 346.263C721.239 361.394 736.213 368.958 755.687 368.958Z" fill="white"/>
<path d="M1216.47 430.683L1192.78 322.458L1160.81 185.725H1158.88L1102.66 430.683H1012.27L924.639 121.233H1008.41L1043.96 258.244C1049.66 282.786 1055.45 316.646 1061.33 359.825H1062.98C1063.71 345.8 1066.93 323.567 1072.62 293.118L1077.03 269.592L1115.06 121.233H1207.66L1243.76 269.592C1244.49 273.651 1245.6 279.649 1247.07 287.583C1248.72 295.516 1250.28 304.006 1251.75 313.049C1253.22 321.905 1254.5 330.669 1255.61 339.342C1256.89 347.831 1257.63 354.659 1257.81 359.825H1259.47C1261.12 346.539 1264.06 328.364 1268.28 305.298C1272.51 282.048 1275.54 266.363 1277.38 258.244L1314.31 121.233H1396.7L1307.97 430.683H1216.47Z" fill="white"/>
<path d="M1490.97 275.404C1490.97 306.035 1495.93 329.193 1505.86 344.877C1515.96 360.564 1532.31 368.405 1554.91 368.405C1577.32 368.405 1593.4 360.655 1603.13 345.154C1613.05 329.47 1618.02 306.221 1618.02 275.404C1618.02 244.773 1613.05 221.8 1603.13 206.484C1593.21 191.168 1576.95 183.511 1554.36 183.511C1531.94 183.511 1515.77 191.168 1505.86 206.484C1495.93 221.615 1490.97 244.589 1490.97 275.404ZM1703.99 275.404C1703.99 325.779 1690.77 365.178 1664.31 393.592C1637.86 422.01 1601.02 436.218 1553.8 436.218C1524.23 436.218 1498.14 429.76 1475.54 416.844C1452.94 403.741 1435.58 385.012 1423.46 360.655C1411.33 336.297 1405.27 307.88 1405.27 275.404C1405.27 224.844 1418.4 185.541 1444.68 157.493C1470.95 129.445 1507.88 115.421 1555.46 115.421C1585.04 115.421 1611.12 121.879 1633.72 134.796C1656.32 147.713 1673.68 166.257 1685.81 190.43C1697.93 214.603 1703.99 242.928 1703.99 275.404Z" fill="white"/>
<path d="M1817.83 275.404C1817.83 306.035 1822.79 329.193 1832.71 344.877C1842.82 360.564 1859.17 368.405 1881.77 368.405C1904.18 368.405 1920.25 360.655 1929.99 345.154C1939.91 329.47 1944.87 306.221 1944.87 275.404C1944.87 244.773 1939.91 221.8 1929.99 206.484C1920.07 191.168 1903.81 183.511 1881.21 183.511C1858.8 183.511 1842.63 191.168 1832.71 206.484C1822.79 221.615 1817.83 244.589 1817.83 275.404ZM2030.85 275.404C2030.85 325.779 2017.62 365.178 1991.17 393.592C1964.71 422.01 1927.88 436.218 1880.66 436.218C1851.08 436.218 1825 429.76 1802.4 416.844C1779.8 403.741 1762.44 385.012 1750.31 360.655C1738.19 336.297 1732.12 307.88 1732.12 275.404C1732.12 224.844 1745.26 185.541 1771.53 157.493C1797.81 129.445 1834.73 115.421 1882.32 115.421C1911.89 115.421 1937.98 121.879 1960.58 134.796C1983.18 147.713 2000.54 166.257 2012.67 190.43C2024.79 214.603 2030.85 242.928 2030.85 275.404Z" fill="white"/>
<path d="M2175.28 436.218C2139.09 436.218 2110.61 422.103 2089.85 393.869C2069.27 365.637 2058.98 326.518 2058.98 276.512C2058.98 225.767 2069.45 186.279 2090.4 158.046C2111.53 129.629 2140.56 115.421 2177.48 115.421C2216.25 115.421 2245.83 130.552 2266.22 160.814H2268.97C2264.75 137.748 2262.64 117.174 2262.64 99.0903V0H2346.96V430.683H2282.48L2266.22 390.548H2262.64C2243.53 420.997 2214.41 436.218 2175.28 436.218ZM2204.76 368.958C2226.26 368.958 2241.97 362.686 2251.89 350.136C2261.99 337.59 2267.5 316.277 2268.42 286.2V277.065C2268.42 243.851 2263.28 220.047 2252.99 205.654C2242.89 191.261 2226.35 184.064 2203.39 184.064C2184.65 184.064 2170.04 192.091 2159.57 208.145C2149.28 224.014 2144.14 247.172 2144.14 277.619C2144.14 308.066 2149.37 330.948 2159.85 346.263C2170.32 361.394 2185.29 368.958 2204.76 368.958Z" fill="white"/>
<path d="M2376.75 549.702C2357.46 549.702 2340.65 547.673 2326.32 543.613V472.2C2341.01 475.89 2354.42 477.736 2366.55 477.736C2385.29 477.736 2398.7 471.833 2406.78 460.023C2414.87 448.398 2418.91 430.13 2418.91 405.219V26.0181H2504.34V404.663C2504.34 451.903 2493.59 487.887 2472.1 512.611C2450.6 537.338 2418.82 549.702 2376.75 549.702Z" fill="white"/>
<path d="M2821 318.308C2821 354.843 2807.87 383.63 2781.59 404.663C2755.5 425.7 2719.13 436.218 2672.46 436.218C2629.47 436.218 2591.44 428.098 2558.37 411.861V332.147C2585.56 344.324 2608.53 352.904 2627.27 357.887C2646.19 362.87 2663.46 365.361 2679.08 365.361C2697.82 365.361 2712.15 361.764 2722.07 354.566C2732.17 347.369 2737.22 336.667 2737.22 322.458C2737.22 314.524 2735.02 307.513 2730.61 301.422C2726.2 295.15 2719.68 289.151 2711.04 283.432C2702.59 277.711 2685.23 268.577 2658.96 256.029C2634.34 244.404 2615.88 233.24 2603.57 222.538C2591.26 211.835 2581.43 199.38 2574.08 185.172C2566.73 170.963 2563.06 154.356 2563.06 135.35C2563.06 99.5516 2575.09 71.4115 2599.16 50.9291C2623.41 30.4466 2656.85 20.2056 2699.47 20.2056C2720.41 20.2056 2740.35 22.6967 2759.27 27.6789C2778.38 32.6612 2798.31 39.673 2819.07 48.7148L2791.51 115.421C2770.02 106.564 2752.2 100.382 2738.05 96.876C2724.09 93.3701 2710.31 91.6169 2696.72 91.6169C2680.55 91.6169 2668.15 95.3998 2659.51 102.965C2650.88 110.531 2646.56 120.403 2646.56 132.582C2646.56 140.147 2648.3 146.79 2651.8 152.51C2655.29 158.046 2660.8 163.49 2668.33 168.841C2676.05 174.008 2694.14 183.419 2722.62 197.073C2760.28 215.157 2786.09 233.333 2800.06 251.601C2814.02 269.684 2821 291.919 2821 318.308Z" fill="white"/>
</svg>
